X:458
T:Meg Merrilees
B:Kerr's Merry Melodies Bk 1 (c1870s)
Z:Nigel Gatherer
M:4/4
L:1/8
K:A
cd | edcd   eagf | feee e2 cd | efec   eaec | cBBB B2 
cd | edcd   eagf | feee e2 cd | efec   BABc | BAAA A2 :|
e2 | ^defe =dcdB | ceAe ceAe  | ^defe =dcdB | BAAA A2
e2 | ^defe =dcdB | ceAe ceAe  |  dcde  fefg | baaa a2 :|]
<end>
<start>
